X: 1
T: le Marin-Congo
O: Gascogne (Basque)
N: Taught by Marilyn Wathen, Pinewoods 1988
M: 4/4
L: 1/16
P: G-D drone
K: G
|: "G"B2B2 "D7"c2A2 | "G"G2E2 D4 | "G"B2B2 c2A2 |1 "G"G4 D4 :|2 "G"G4 z4 ||
|::: "G"G2B2 G2B2 | "D7"AGAB AcBA | "G"G2B2 G2B2 | "D7"AGAB A4 :::|
P: C-G drone
K: C
|: "C"e2c2 c2de | "G7"f2e2 d2cd | "C"e2c2 c2de |   "G7"f2e2 d4 :|
|::: "C"g2e2 g2e2 | "G7"f2g2 f2ag | "G7"f2e2 d2ef |1,3 "C"e2d2 e2c2 :|2,4 "C"e2d2 c4 :|

%%sep 1 0 500
%%sep 1 0 500


